X:166
T:166  Valentine Jigg   (Pe)
M: 9/8
L: 1/8
S: original in 6/8 major reconstruction -AH
K:D
A3 F2A c2d | efe d2c BAG|A3 F2A c2d| A2a g>fg a3 :|
|: a2e c2e gag |e2c d2f efe |d3 G2B cdc |ABc dcB A3:|





